src/assets/duotone/KyberNetwork.svg

<svg width="24" height="24" viewBox="0 0 24 24"  xmlns="http://www.w3.org/2000/svg">
<path opacity="0.6" d="M19 7.1593V15.9693C19 16.3993 18.86 16.8093 18.62 17.1493L18.16 16.9093L10 11.9993L18.54 7.2593L18.99 7.0293C19 7.0693 19 7.1193 19 7.1593Z" />
<path d="M18.99 7.03031L18.54 7.26031L10 12.0003L12 3.00031L12.14 2.32031C12.43 2.34031 12.72 2.42031 12.99 2.57031L17.99 5.42031C18.58 5.76031 18.95 6.36031 18.99 7.03031Z" />
<path opacity="0.4" d="M12 2.99985L10 11.9999L11.85 21.2299L11.9 21.5299C11.52 21.5199 11.15 21.3999 10.84 21.1699L5.84003 17.5999C5.31003 17.2199 5 16.6199 5 15.9699V7.15985C5 6.43985 5.38001 5.77985 6.01001 5.41985L11.01 2.56985C11.36 2.36985 11.75 2.27985 12.14 2.31985L12 2.99985Z" />
<path d="M18.62 17.15C18.49 17.32 18.34 17.47 18.16 17.6L13.16 21.17C12.79 21.44 12.34 21.56 11.9 21.53L11.85 21.23L10 12L18.16 16.91L18.62 17.15Z" />
</svg>

<?xml version="1.0" encoding="UTF-8"?>
<svg width="24" height="24" viewBox="0 0 24 24" xmlns="http://www.w3.org/2000/svg">
 <path d="m19 7.1593v8.81c0 0.43-0.14 0.84-0.38 1.18l-0.46-0.24-8.16-4.91 8.54-4.74 0.45-0.23c0.01 0.04 0.01 0.09 0.01 0.13z" opacity=".6"/>
 <path d="m18.99 7.0303-0.45 0.23-8.54 4.74 2-9 0.14-0.68c0.29 0.02 0.58 0.1 0.85 0.25l5 2.85c0.59 0.34 0.96 0.94 1 1.61z"/>
 <path d="m12 2.9998-2 9 1.85 9.23 0.05 0.3c-0.38-0.01-0.75-0.13-1.06-0.36l-5-3.57c-0.53-0.38-0.84003-0.98-0.84003-1.63v-8.81c0-0.72 0.38001-1.38 1.01-1.74l5-2.85c0.35-0.2 0.74-0.29 1.13-0.25l-0.14 0.68z" opacity=".4"/>
 <path d="m18.62 17.15c-0.13 0.17-0.28 0.32-0.46 0.45l-5 3.57c-0.37 0.27-0.82 0.39-1.26 0.36l-0.05-0.3-1.85-9.23 8.16 4.91 0.46 0.24z"/>
</svg>
